src/assets/outline/CloudNotif.svg

<svg width="24" height="24" viewBox="0 0 24 24"  xmlns="http://www.w3.org/2000/svg">
<path d="M16.6698 20.83C16.6498 20.83 16.6398 20.83 16.6298 20.83H5.53979C2.59979 20.62 1.27979 18.35 1.27979 16.34C1.27979 14.54 2.32979 12.54 4.60979 11.99C3.97979 9.47001 4.52979 7.11001 6.18979 5.40001C8.06979 3.46001 11.0598 2.71001 13.6098 3.54001C13.9998 3.67001 14.2198 4.09001 14.0898 4.48001C13.9598 4.87001 13.5398 5.09001 13.1498 4.96001C11.1198 4.31001 8.74979 4.90001 7.25979 6.45001C5.80979 7.95001 5.46979 10.04 6.29979 12.35C6.37979 12.58 6.34979 12.84 6.20979 13.03C6.06979 13.22 5.83978 13.35 5.59978 13.35C3.65978 13.49 2.78979 14.95 2.78979 16.34C2.78979 17.73 3.65978 19.19 5.59978 19.34H16.6398C17.7798 19.35 18.9198 18.92 19.7698 18.14C20.9198 17.13 21.4198 15.66 21.1698 14.1C21.0998 13.69 21.3798 13.31 21.7898 13.24C22.1998 13.17 22.5798 13.45 22.6498 13.86C22.9898 15.92 22.2798 17.94 20.7798 19.26C19.6598 20.26 18.1998 20.83 16.6698 20.83Z" />
<path d="M7.25984 13.7599C7.14984 13.7599 7.02984 13.7299 6.92984 13.6799C6.50984 13.4699 6.04984 13.3599 5.57984 13.3499C5.16984 13.3399 4.83984 12.9999 4.83984 12.5899C4.84984 12.1799 5.23984 11.8399 5.59984 11.8499C6.28984 11.8599 6.97984 12.0299 7.58984 12.3399C7.95984 12.5199 8.10984 12.9799 7.92984 13.3499C7.79984 13.6099 7.53984 13.7599 7.25984 13.7599Z" />
<path d="M18.4702 12.75C16.1302 12.75 14.2202 10.84 14.2202 8.50001C14.2202 7.40001 14.6402 6.36001 15.4002 5.58001C15.4202 5.55001 15.4402 5.53001 15.4602 5.51001C16.2602 4.70001 17.3202 4.26001 18.4602 4.26001C20.8002 4.26001 22.7102 6.17001 22.7102 8.51001C22.7102 9.81001 22.1302 11.02 21.1102 11.83C20.3802 12.42 19.4402 12.75 18.4702 12.75ZM16.6002 6.50001C16.5802 6.53001 16.5602 6.55001 16.5302 6.58001C16.0102 7.09001 15.7202 7.78001 15.7202 8.51001C15.7202 10.03 16.9502 11.26 18.4702 11.26C19.0902 11.26 19.7002 11.05 20.1802 10.66C20.8502 10.13 21.2202 9.35001 21.2202 8.51001C21.2202 6.99001 19.9902 5.76001 18.4702 5.76001C17.7602 5.75001 17.1002 6.02001 16.6002 6.50001Z" />
</svg>

<?xml version="1.0" encoding="UTF-8"?>
<svg width="24" height="24" viewBox="0 0 24 24" xmlns="http://www.w3.org/2000/svg">
 <path d="m16.67 20.83h-0.04-11.09c-2.94-0.21-4.26-2.48-4.26-4.49 0-1.8 1.05-3.8 3.33-4.35-0.63-2.52-0.08-4.88 1.58-6.59 1.88-1.94 4.87-2.69 7.42-1.86 0.39 0.13 0.61 0.55 0.48 0.94s-0.55 0.61-0.94 0.48c-2.03-0.65-4.4-0.06-5.89 1.49-1.45 1.5-1.79 3.59-0.96 5.9 0.08 0.23 0.05 0.49-0.09 0.68s-0.37001 0.32-0.61001 0.32c-1.94 0.14-2.81 1.6-2.81 2.99s0.86999 2.85 2.81 3h11.04c1.14 0.01 2.28-0.42 3.13-1.2 1.15-1.01 1.65-2.48 1.4-4.04-0.07-0.41 0.21-0.79 0.62-0.86s0.79 0.21 0.86 0.62c0.34 2.06-0.37 4.08-1.87 5.4-1.12 1-2.58 1.57-4.11 1.57z"/>
 <path d="m7.2598 13.76c-0.11 0-0.23-0.03-0.33-0.08-0.42-0.21-0.88-0.32-1.35-0.33-0.41-0.01-0.74-0.35-0.74-0.76 0.01-0.41 0.4-0.75 0.76-0.74 0.69 0.01 1.38 0.18 1.99 0.49 0.37 0.18 0.52 0.64 0.34 1.01-0.13 0.26-0.39 0.41-0.67 0.41z"/>
 <path d="m18.47 12.75c-2.34 0-4.25-1.91-4.25-4.25 0-1.1 0.42-2.14 1.18-2.92 0.02-0.03 0.04-0.05 0.06-0.07 0.8-0.81 1.86-1.25 3-1.25 2.34 0 4.25 1.91 4.25 4.25 0 1.3-0.58 2.51-1.6 3.32-0.73 0.59-1.67 0.92-2.64 0.92zm-1.87-6.25c-0.02 0.03-0.04 0.05-0.07 0.08-0.52 0.51-0.81 1.2-0.81 1.93 0 1.52 1.23 2.75 2.75 2.75 0.62 0 1.23-0.21 1.71-0.6 0.67-0.53 1.04-1.31 1.04-2.15 0-1.52-1.23-2.75-2.75-2.75-0.71-0.01-1.37 0.26-1.87 0.74z"/>
</svg>
